icons/glyphs/glyph-waveform.svg

<?xml version="1.0" encoding="UTF-8" standalone="no"?><svg height="16" viewBox="0 0 4.2333332 4.2333332" width="16" xmlns="http://www.w3.org/2000/svg"><sodipodi:namedview/><metadata><rdf:RDF><cc:Work><dc:format>image/svg+xml</dc:format><dc:type/><dc:title/></cc:Work></rdf:RDF></metadata><path d="m1.7107249.8326658v2.5680016h.3842021v-2.5680016zm-.4276812.1925112v2.1829789h.3842021v-2.1829789zm2.5660873.023791v2.1353975h.3842022v-2.135398zm-1.7107249.110338v1.9147212h.3842021v-1.9147212zm-1.28304364.093384v1.7279529h.38420204v-1.7279526zm1.71072484.1279765v1.472h.3842021v-1.472zm-2.13840607.1357697v1.2004606h.38420209v-1.2004606zm2.99376847.046077v1.108307h.3842022v-1.1083072zm-3.4214497.0782076v.9518915h.38420211v-.9518915zm2.9937684.1629782v.625935h.3842022v-.625935z" fill="#d0d0d0" opacity=".932" stroke-width=".046777"/></svg>

<?xml version="1.0" encoding="UTF-8" standalone="no"?>
<!-- Created with Inkscape (http://www.inkscape.org/) -->

<svg
   xmlns:dc="http://purl.org/dc/elements/1.1/"
   xmlns:cc="http://creativecommons.org/ns#"
   xmlns:rdf="http://www.w3.org/1999/02/22-rdf-syntax-ns#"
   xmlns:svg="http://www.w3.org/2000/svg"
   xmlns="http://www.w3.org/2000/svg"
   xmlns:sodipodi="http://sodipodi.sourceforge.net/DTD/sodipodi-0.dtd"
   xmlns:inkscape="http://www.inkscape.org/namespaces/inkscape"
   width="16"
   height="16"
   viewBox="0 0 4.2333332 4.2333332"
   version="1.1"
   id="svg8"
   inkscape:version="0.92+devel (0526f3edb8, 2017-07-23, custom)"
   sodipodi:docname="glyph-waveform.svg">
  <defs
     id="defs2" />
  <sodipodi:namedview
     id="base"
     pagecolor="#002466"
     bordercolor="#ffffff"
     borderopacity="0.38039216"
     inkscape:pageopacity="1"
     inkscape:pageshadow="2"
     inkscape:zoom="10.137867"
     inkscape:cx="39.679867"
     inkscape:cy="27.302424"
     inkscape:document-units="px"
     inkscape:current-layer="svg8"
     inkscape:document-rotation="0"
     showgrid="false"
     inkscape:showpageshadow="false"
     borderlayer="true"
     inkscape:window-width="1920"
     inkscape:window-height="1051"
     inkscape:window-x="0"
     inkscape:window-y="0"
     inkscape:window-maximized="1"
     inkscape:snap-page="true"
     inkscape:snap-grids="false"
     inkscape:snap-to-guides="false"
     units="px" />
  <metadata
     id="metadata5">
    <rdf:RDF>
      <cc:Work
         rdf:about="">
        <dc:format>image/svg+xml</dc:format>
        <dc:type
           rdf:resource="http://purl.org/dc/dcmitype/StillImage" />
        <dc:title></dc:title>
      </cc:Work>
    </rdf:RDF>
  </metadata>
  <path
     style="opacity:0.93199978;fill:#d0d0d0;stroke-width:0.04677672"
     d="M 1.7107249,0.8326658 V 3.4006674 H 2.094927 V 0.8326658 Z M 1.2830437,1.025177 V 3.2081559 H 1.6672458 V 1.025177 Z M 3.849131,1.048968 V 3.1843655 H 4.2333332 V 1.0489675 Z M 2.1384061,1.159306 V 3.0740272 H 2.5226082 V 1.159306 Z M 0.85536246,1.25269 V 2.9806429 H 1.2395645 V 1.2526903 Z M 2.5660873,1.3806665 v 1.472 h 0.3842021 v -1.472 z M 0.42768123,1.5164362 V 2.7168968 H 0.81188332 V 1.5164362 Z m 2.99376847,0.046077 v 1.108307 H 3.8056519 V 1.562513 Z M 0,1.6407208 V 2.5926123 H 0.38420211 V 1.6407208 Z M 2.9937684,1.803699 V 2.429634 H 3.3779706 V 1.803699 Z"
     id="path11"
     inkscape:connector-curvature="0" />
</svg>
